public/assets/icons/bank.svg

<svg width="13" height="14" viewBox="0 0 13 14" fill="none" xmlns="http://www.w3.org/2000/svg">
<path d="M6.7479 1.53333L1.79999 4.13749V5.17916H11.6958V4.13749M9.09165 6.22083V9.86666H10.6542V6.22083M1.79999 12.4708H11.6958V10.9083H1.79999M5.96665 6.22083V9.86666H7.52915V6.22083M2.84165 6.22083V9.86666H4.40415V6.22083H2.84165Z" fill="#64748B"/>
</svg>

<svg width="13" height="14" fill="none" xmlns="http://www.w3.org/2000/svg"><path d="M6.748 1.533L1.8 4.137V5.18h9.896V4.137M9.092 6.221v3.646h1.562V6.22M1.8 12.47h9.896v-1.563H1.8m4.167-4.687v3.646h1.562V6.22m-4.687 0v3.646h1.562V6.22H2.842z" fill="#64748B"/></svg>
